X: 8517
T: Creel Of Turf, The
R: jig
M: 6/8
K: Eminor
|:EBB BAG|FDF AGF|EBB Bcd|AGF E2E|
EGB BAG|FDF AGF|GAB Bcd|AGF E3:|
|:Bee efg|dcB AGF|Bee efg|f^df e2e|
Bee efg|dcB AGF|GAB Bcd|AGF E3:|

